core/assets/icons/calls_out_comming.outline.svg

<svg width="24" height="24" viewBox="0 0 24 24" xmlns="http://www.w3.org/2000/svg"><g id="calls-out-comming=outline"><g id="Union"><path fill-rule="evenodd" clip-rule="evenodd" d="M10.3387 8.80966C9.52287 7.3168 9.03221 5.66817 8.89897 3.97215C8.87799 3.70744 8.75802 3.46037 8.56297 3.28019C8.36793 3.10001 8.11214 2.99997 7.8466 3H3.13681C2.87547 2.99994 2.62339 3.09684 2.42938 3.27194C2.23537 3.44704 2.11321 3.68789 2.08655 3.94787C2.0285 4.5073 2 5.07096 2 5.63884C2 14.6742 9.32541 21.9996 18.3608 21.9996C18.9287 21.9996 19.4923 21.9711 20.0517 21.9131C20.3117 21.8864 20.5526 21.7642 20.7277 21.5702C20.9028 21.3762 20.9997 21.1241 20.9996 20.8628V16.153C20.9996 15.8875 20.8996 15.6317 20.7194 15.4366C20.5392 15.2416 20.2922 15.1216 20.0275 15.1006C18.3314 14.9674 16.6828 14.4767 15.19 13.6609C14.9635 13.5369 14.6994 13.5002 14.4477 13.5578C14.196 13.6154 13.9741 13.7632 13.8241 13.9733L12.891 15.2801C11.151 14.2896 9.70998 12.8486 8.71953 11.1086L10.0263 10.1755C10.2364 10.0255 10.3842 9.8036 10.4418 9.55191C10.4994 9.30021 10.4627 9.03614 10.3387 8.80966ZM8.88955 9.19294L6.79871 10.6859L7.4505 11.831C8.57074 13.799 10.2006 15.4289 12.1686 16.5491L13.3137 17.2009L14.8067 15.1101C16.2842 15.8673 17.8886 16.3459 19.5394 16.5218V20.4936C19.1497 20.5242 18.7569 20.5394 18.3608 20.5394C10.1319 20.5394 3.46022 13.8678 3.46022 5.63884C3.46022 5.24273 3.47539 4.8499 3.50601 4.46022H7.47782C7.65374 6.11104 8.13229 7.71543 8.88955 9.19294Z"/><path d="M13.9998 8.96949L18.4693 4.49997L14.2801 4.49997V3H21.03V9.74986H19.53V5.56049L15.0604 10.0301L13.9998 8.96949Z"/></g></g></svg>

<svg xmlns="http://www.w3.org/2000/svg" width="24" height="24" fill="none"><g fill="#191C22"><path fill-rule="evenodd" d="M10.339 8.81a12.057 12.057 0 0 1-1.44-4.838A1.056 1.056 0 0 0 7.847 3h-4.71a1.056 1.056 0 0 0-1.05.948C2.029 4.508 2 5.07 2 5.638 2 14.675 9.325 22 18.36 22c.569 0 1.132-.029 1.692-.087a1.056 1.056 0 0 0 .948-1.05v-4.71a1.056 1.056 0 0 0-.973-1.052 12.056 12.056 0 0 1-4.837-1.44 1.056 1.056 0 0 0-1.366.312l-.933 1.307A11.143 11.143 0 0 1 8.72 11.11l1.306-.934a1.055 1.055 0 0 0 .313-1.365Zm-1.45.383L6.8 10.686l.651 1.145a12.603 12.603 0 0 0 4.719 4.718l1.145.652 1.493-2.09a13.517 13.517 0 0 0 4.732 1.41v3.973c-.39.03-.782.045-1.178.045-8.23 0-14.9-6.671-14.9-14.9 0-.396.014-.79.045-1.179h3.972c.176 1.651.654 3.255 1.412 4.733Z" clip-rule="evenodd"/><path d="m14 8.97 4.47-4.47h-4.19V3h6.75v6.75h-1.5V5.56l-4.47 4.47L14 8.97Z"/></g></svg>
